StripePaymentSheet/StripePaymentSheet/Resources/StripePaymentSheet.xcassets/Carousel/carousel_card_amex.imageset/americanExpressLight.svg

<svg fill="none" height="40" viewBox="0 0 56 40" width="56" xmlns="http://www.w3.org/2000/svg"><path d="m36.6545 13.1909.8909-2.3545h3.9455v-4.26368h-26.9819v26.98178h26.9819v-4.2636h-3.7546l-1.4-1.5909-1.4 1.5909h-10.5636v-8.5273h-3.5l4.3909-9.8636h4.2636l1.0182 2.2273v-2.2273h5.2818zm-2.9273 1.5909v-.9545l.3818.9545 1.7819 4.7091h1.6545l1.7818-4.7091.3182-.9545v5.6h1.8455v-7.1909h-3.0546l-1.4 3.6272-.3818 1.0182-.3818-1.0182-1.4-3.6272h-3.0546v7.1909h1.9091zm-3.9454 4.6455h2.1l-3.1819-7.1909h-2.4818l-3.1818 7.1909h2.1l.5727-1.4h3.5zm-2.6728-4.7091.3819-.8909.3818.8909.7636 1.8454h-2.2273zm-1.2727 6.0454v7.1909h5.9818v-1.5272h-4.2v-1.2728h4.0728v-1.5272h-4.0728v-1.2728h4.2v-1.5272zm12.7273 7.1273h2.3545l-3.3727-3.5636 3.3727-3.5637h-2.3545l-2.1637 2.3546-2.1636-2.3546h-2.4182l3.3728 3.6273-3.3728 3.5636h2.2909l2.1637-2.3545zm.8909-3.5636 2.0364 2.1v-4.1364z" fill="#006fcf"/></svg>

<svg width="56" height="40" viewBox="0 0 56 40" fill="none" xmlns="http://www.w3.org/2000/svg">
<path d="M36.6545 13.1909L37.5454 10.8364H41.4909V6.57272H14.509V33.5545H41.4909V29.2909H37.7363L36.3363 27.7L34.9363 29.2909H24.3727V20.7636H20.8727L25.2636 10.9H29.5272L30.5454 13.1273V10.9H35.8272L36.6545 13.1909ZM33.7272 14.7818V13.8273L34.109 14.7818L35.8909 19.4909H37.5454L39.3272 14.7818L39.6454 13.8273V19.4273H41.4909V12.2364H38.4363L37.0363 15.8636L36.6545 16.8818L36.2727 15.8636L34.8727 12.2364H31.8181V19.4273H33.7272V14.7818ZM29.7818 19.4273H31.8818L28.6999 12.2364H26.2181L23.0363 19.4273H25.1363L25.709 18.0273H29.209L29.7818 19.4273ZM27.109 14.7182L27.4909 13.8273L27.8727 14.7182L28.6363 16.5636H26.409L27.109 14.7182ZM25.8363 20.7636V27.9545H31.8181V26.4273H27.6181V25.1545H31.6909V23.6273H27.6181V22.3545H31.8181V20.8273L25.8363 20.7636ZM38.5636 27.8909H40.9181L37.5454 24.3273L40.9181 20.7636H38.5636L36.3999 23.1182L34.2363 20.7636H31.8181L35.1909 24.3909L31.8181 27.9545H34.109L36.2727 25.6L38.5636 27.8909ZM39.4545 24.3273L41.4909 26.4273V22.2909L39.4545 24.3273Z" fill="#006FCF"/>
</svg>
